src/icons/svgs/24/graduation-cap.svg

<svg width="24" height="24" viewBox="0 0 24 24" fill="none" xmlns="http://www.w3.org/2000/svg">
<path d="M21.4719 7.51228L12.6375 4.12388C12.4469 4.04118 12.225 4 12 4C11.775 4 11.5531 4.04118 11.3375 4.12321L2.50156 7.51228C2.20119 7.62946 2 7.9375 2 8.28571C2 8.63393 2.20119 8.94364 2.50156 9.05882L4.37719 9.77902C4.00563 10.308 3.74406 10.9228 3.61 11.5854C3.25156 11.7478 3 12.1295 3 12.5714C3 12.9047 3.15044 13.1905 3.37312 13.3871L2.59719 18.3759C2.54625 18.702 2.78125 19 3.09031 19H4.90969C5.21866 19 5.45375 18.7027 5.40281 18.3762L4.62687 13.3874C4.84969 13.1908 5 12.8761 5 12.5714C5 12.2269 4.83831 11.9343 4.6025 11.7381C4.73344 11.1508 5.00164 10.609 5.38188 10.1634L11.3381 12.4479C11.5531 12.5312 11.775 12.5714 12 12.5714C12.225 12.5714 12.4484 12.5303 12.6628 12.4481L21.4972 9.05969C21.8 8.94196 22 8.63393 22 8.28571C22 7.9375 21.8 7.62946 21.4719 7.51228ZM12.1594 10.9342C12.0575 10.9734 11.946 10.9734 11.8441 10.9344L7.48438 9.26339L12.1469 7.72589C12.411 7.63904 12.5581 7.33917 12.4772 7.05558C12.3961 6.77306 12.1156 6.61127 11.8519 6.70234L5.9125 8.66071L4.93625 8.28571L11.8144 5.63661C11.9163 5.59735 12.0277 5.59728 12.1297 5.63641L19.0625 8.28571L12.1594 10.9342ZM16.1344 12.2533L16.5 16.01C16.5 16.365 14.9531 17.3929 12 17.3929C9.04688 17.3929 7.5 16.3643 7.5 16.0087L7.86625 12.2554L6.42625 11.7029L6.00406 15.925C6 17.9721 9.01875 19 12 19C14.9812 19 18 17.9724 17.9969 15.926L17.5747 11.7039L16.1344 12.2533Z" fill="black"/>
</svg>

<svg width="24" height="24" viewBox="0 0 24 24" xmlns="http://www.w3.org/2000/svg">
    <path d="m21.472 7.512-8.835-3.388A1.618 1.618 0 0 0 12 4c-.225 0-.447.041-.662.123l-8.836 3.39A.82.82 0 0 0 2 8.285c0 .348.201.658.502.773l1.875.72a4.79 4.79 0 0 0-.767 1.806c-.358.163-.61.544-.61.986 0 .334.15.62.373.816l-.776 4.989c-.05.326.184.624.493.624h1.82c.309 0 .544-.297.493-.624l-.776-4.989A1.13 1.13 0 0 0 5 12.571a1.08 1.08 0 0 0-.397-.833c.13-.587.399-1.129.779-1.575l5.956 2.285a1.846 1.846 0 0 0 1.325 0l8.834-3.388A.82.82 0 0 0 22 8.286c0-.348-.2-.657-.528-.774zm-9.313 3.422a.438.438 0 0 1-.315 0l-4.36-1.67 4.663-1.538c.264-.087.411-.387.33-.67-.08-.283-.361-.445-.625-.354l-5.94 1.959-.976-.375 6.878-2.65a.437.437 0 0 1 .316 0l6.932 2.65-6.903 2.648zm3.975 1.32.366 3.756c0 .355-1.547 1.383-4.5 1.383-2.953 0-4.5-1.029-4.5-1.384l.366-3.754-1.44-.552-.422 4.222C6 17.972 9.02 19 12 19c2.981 0 6-1.028 5.997-3.074l-.422-4.222-1.44.55z"/>
</svg>
